content/blogs/regnskap/hva-er-datakasse/kassasystem-gdpr.svg

<svg xmlns="http://www.w3.org/2000/svg" width="800" height="600" viewBox="0 0 800 600"><defs><linearGradient id="a" x1="0%" x2="100%" y1="0%" y2="100%"><stop offset="0%" style="stop-color:#2196f3;stop-opacity:1"/><stop offset="100%" style="stop-color:#0d47a1;stop-opacity:1"/></linearGradient><linearGradient id="b" x1="0%" x2="100%" y1="0%" y2="100%"><stop offset="0%" style="stop-color:#4caf50;stop-opacity:1"/><stop offset="100%" style="stop-color:#1b5e20;stop-opacity:1"/></linearGradient><linearGradient id="c" x1="0%" x2="100%" y1="0%" y2="100%"><stop offset="0%" style="stop-color:#ff9800;stop-opacity:1"/><stop offset="100%" style="stop-color:#e65100;stop-opacity:1"/></linearGradient><linearGradient id="d" x1="0%" x2="100%" y1="0%" y2="100%"><stop offset="0%" style="stop-color:#9c27b0;stop-opacity:1"/><stop offset="100%" style="stop-color:#4a148c;stop-opacity:1"/></linearGradient><linearGradient id="e" x1="0%" x2="100%" y1="0%" y2="100%"><stop offset="0%" style="stop-color:#f44336;stop-opacity:1"/><stop offset="100%" style="stop-color:#c62828;stop-opacity:1"/></linearGradient></defs><path fill="#f8f9fa" d="M0 0h800v600H0z"/><path fill="url(#a)" d="M0 0h800v60H0z"/><text x="400" y="35" fill="#fff" font-family="Arial, sans-serif" font-size="24" font-weight="bold" text-anchor="middle">
    GDPR Krav for Kassasystemer
  </text><path fill="url(#b)" stroke="#fff" stroke-width="2" d="m50 20 30 15v30c0 10-15 20-30 20S20 75 20 65V35Z" transform="translate(50 80)"/><text x="50" y="50" fill="#fff" font-family="Arial, sans-serif" font-size="12" font-weight="bold" text-anchor="middle" transform="translate(50 80)">
      GDPR
    </text><text x="50" y="65" fill="#fff" font-family="Arial, sans-serif" font-size="10" text-anchor="middle" transform="translate(50 80)">
      🔒
    </text><g transform="translate(150 80)"><rect width="600" height="120" fill="#fff" stroke="#ddd" rx="10"/><rect width="600" height="40" fill="url(#b)" rx="10"/><text x="300" y="25" fill="#fff" font-family="Arial, sans-serif" font-size="16" font-weight="bold" text-anchor="middle">
      📋 GDPR Grunnprinsipper for Kassasystemer
    </text><g font-family="Arial, sans-serif"><text y="20" fill="#333" font-size="12" font-weight="bold" transform="translate(20 50)">
        Databehandling:
      </text><text y="35" fill="#666" font-size="11" transform="translate(20 50)">
        • Lovlig grunnlag for behandling
      </text><text y="50" fill="#666" font-size="11" transform="translate(20 50)">
        • Formålsbegrensning
      </text><text y="65" fill="#666" font-size="11" transform="translate(20 50)">
        • Dataminimering
      </text><text x="200" y="20" fill="#333" font-size="12" font-weight="bold" transform="translate(20 50)">
        Sikkerhet:
      </text><text x="200" y="35" fill="#666" font-size="11" transform="translate(20 50)">
        • Kryptering av data
      </text><text x="200" y="50" fill="#666" font-size="11" transform="translate(20 50)">
        • Tilgangskontroll
      </text><text x="200" y="65" fill="#666" font-size="11" transform="translate(20 50)">
        • Regelmessig backup
      </text><text x="400" y="20" fill="#333" font-size="12" font-weight="bold" transform="translate(20 50)">
        Rettigheter:
      </text><text x="400" y="35" fill="#666" font-size="11" transform="translate(20 50)">
        • Rett til sletting
      </text><text x="400" y="50" fill="#666" font-size="11" transform="translate(20 50)">
        • Dataportabilitet
      </text><text x="400" y="65" fill="#666" font-size="11" transform="translate(20 50)">
        • Informasjonsplikt
      </text></g></g><g transform="translate(50 220)"><rect width="340" height="160" fill="#fff" stroke="#ddd" rx="10"/><rect width="340" height="40" fill="url(#c)" rx="10"/><text x="170" y="25" fill="#fff" font-family="Arial, sans-serif" font-size="14" font-weight="bold" text-anchor="middle">
      📄 Databehandlingsavtaler
    </text><g font-family="Arial, sans-serif"><text y="20" fill="#333" font-size="12" font-weight="bold" transform="translate(15 50)">
        Avtaler med leverandører:
      </text><text y="40" fill="#666" font-size="11" transform="translate(15 50)">
        • Kassasystemleverandør
      </text><text y="55" fill="#666" font-size="11" transform="translate(15 50)">
        • Cloud-tjenesteleverandør
      </text><text y="70" fill="#666" font-size="11" transform="translate(15 50)">
        • Betalingsformidler
      </text><text y="85" fill="#666" font-size="11" transform="translate(15 50)">
        • Support og vedlikehold
      </text><text y="100" fill="#666" font-size="11" transform="translate(15 50)">
        • Backup-tjenester
      </text></g></g><g transform="translate(410 220)"><rect width="340" height="160" fill="#fff" stroke="#ddd" rx="10"/><rect width="340" height="40" fill="url(#d)" rx="10"/><text x="170" y="25" fill="#fff" font-family="Arial, sans-serif" font-size="14" font-weight="bold" text-anchor="middle">
      👤 Kunderettigheter
    </text><g font-family="Arial, sans-serif"><text y="20" fill="#333" font-size="12" font-weight="bold" transform="translate(15 50)">
        Registrerte personers rettigheter:
      </text><text y="40" fill="#666" font-size="11" transform="translate(15 50)">
        • Rett til informasjon om behandling
      </text><text y="55" fill="#666" font-size="11" transform="translate(15 50)">
        • Rett til innsyn i egne data
      </text><text y="70" fill="#666" font-size="11" transform="translate(15 50)">
        • Rett til retting av feil
      </text><text y="85" fill="#666" font-size="11" transform="translate(15 50)">
        • Rett til sletting (når mulig)
      </text><text y="100" fill="#666" font-size="11" transform="translate(15 50)">
        • Rett til dataportabilitet
      </text></g></g><g transform="translate(50 400)"><rect width="700" height="140" fill="#fff" stroke="#ddd" rx="10"/><rect width="700" height="40" fill="url(#c)" rx="10"/><text x="350" y="25" fill="#fff" font-family="Arial, sans-serif" font-size="16" font-weight="bold" text-anchor="middle">
      🔐 Sikkerhetstiltak og Implementering
    </text><g font-family="Arial, sans-serif"><text y="20" fill="#333" font-size="12" font-weight="bold" transform="translate(30 50)">
        Tekniske tiltak:
      </text><text y="40" fill="#666" font-size="11" transform="translate(30 50)">
        • End-to-end kryptering av data
      </text><text y="55" fill="#666" font-size="11" transform="translate(30 50)">
        • To-faktor autentisering
      </text><text y="70" fill="#666" font-size="11" transform="translate(30 50)">
        • Automatisk logging av tilgang
      </text><text x="250" y="20" fill="#333" font-size="12" font-weight="bold" transform="translate(30 50)">
        Organisatoriske tiltak:
      </text><text x="250" y="40" fill="#666" font-size="11" transform="translate(30 50)">
        • Personvernpolicy for kunder
      </text><text x="250" y="55" fill="#666" font-size="11" transform="translate(30 50)">
        • Opplæring av ansatte
      </text><text x="250" y="70" fill="#666" font-size="11" transform="translate(30 50)">
        • Rutiner for datainnbrudd
      </text><text x="500" y="20" fill="#333" font-size="12" font-weight="bold" transform="translate(30 50)">
        Overvåkning:
      </text><text x="500" y="40" fill="#666" font-size="11" transform="translate(30 50)">
        • Regelmessige risikovurderinger
      </text><text x="500" y="55" fill="#666" font-size="11" transform="translate(30 50)">
        • Konsekvensutredninger (DPIA)
      </text><text x="500" y="70" fill="#666" font-size="11" transform="translate(30 50)">
        • Internrevisjon av prosedyrer
      </text></g></g><g transform="translate(50 560)"><rect width="700" height="30" fill="url(#e)" rx="5"/><text x="20" y="20" fill="#fff" font-family="Arial, sans-serif" font-size="12" font-weight="bold">
      ⚠️ VIKTIG: Brudd på GDPR kan medføre bøter på opptil 4% av årlig omsetning eller 20 millioner euro
    </text></g><g transform="translate(600 250)"><circle cx="50" cy="30" r="15" fill="url(#b)"/><text x="50" y="35" fill="#fff" font-family="Arial, sans-serif" font-size="10" text-anchor="middle">👤</text><text x="50" y="55" fill="#333" font-family="Arial, sans-serif" font-size="10" text-anchor="middle">Kunde</text><path fill="none" stroke="#666" stroke-width="2" d="M50 70v20m-5-5 5 5 5-5"/><text x="60" y="85" fill="#666" font-family="Arial, sans-serif" font-size="9">Persondata</text><rect width="50" height="30" x="25" y="100" fill="url(#c)" rx="5"/><text x="50" y="118" fill="#fff" font-family="Arial, sans-serif" font-size="9" text-anchor="middle">Kassa</text><path fill="none" stroke="#666" stroke-width="2" d="M80 115h20m-5-5 5 5-5 5"/><text x="85" y="110" fill="#666" font-family="Arial, sans-serif" font-size="9">Sikker</text><text x="85" y="125" fill="#666" font-family="Arial, sans-serif" font-size="9">lagring</text><circle cx="115" cy="115" r="15" fill="url(#d)"/><text x="115" y="120" fill="#fff" font-family="Arial, sans-serif" font-size="10" text-anchor="middle">💾</text></g></svg>

<svg width="800" height="600" viewBox="0 0 800 600" xmlns="http://www.w3.org/2000/svg">
  <defs>
    <linearGradient id="headerGradient" x1="0%" y1="0%" x2="100%" y2="100%">
      <stop offset="0%" style="stop-color:#2196F3;stop-opacity:1" />
      <stop offset="100%" style="stop-color:#0D47A1;stop-opacity:1" />
    </linearGradient>
    <linearGradient id="gdprGradient" x1="0%" y1="0%" x2="100%" y2="100%">
      <stop offset="0%" style="stop-color:#4CAF50;stop-opacity:1" />
      <stop offset="100%" style="stop-color:#1B5E20;stop-opacity:1" />
    </linearGradient>
    <linearGradient id="securityGradient" x1="0%" y1="0%" x2="100%" y2="100%">
      <stop offset="0%" style="stop-color:#FF9800;stop-opacity:1" />
      <stop offset="100%" style="stop-color:#E65100;stop-opacity:1" />
    </linearGradient>
    <linearGradient id="complianceGradient" x1="0%" y1="0%" x2="100%" y2="100%">
      <stop offset="0%" style="stop-color:#9C27B0;stop-opacity:1" />
      <stop offset="100%" style="stop-color:#4A148C;stop-opacity:1" />
    </linearGradient>
    <linearGradient id="warningGradient" x1="0%" y1="0%" x2="100%" y2="100%">
      <stop offset="0%" style="stop-color:#f44336;stop-opacity:1" />
      <stop offset="100%" style="stop-color:#c62828;stop-opacity:1" />
    </linearGradient>
  </defs>
  

  <rect width="800" height="600" fill="#f8f9fa"/>
  

  <rect x="0" y="0" width="800" height="60" fill="url(#headerGradient)"/>
  <text x="400" y="35" text-anchor="middle" font-family="Arial, sans-serif" font-size="24" font-weight="bold" fill="white">
    GDPR Krav for Kassasystemer
  </text>
  

  <g transform="translate(50, 80)">
    <path d="M50 20 L80 35 L80 65 C80 75 65 85 50 85 C35 85 20 75 20 65 L20 35 Z" fill="url(#gdprGradient)" stroke="white" stroke-width="2"/>
    <text x="50" y="50" text-anchor="middle" font-family="Arial, sans-serif" font-size="12" font-weight="bold" fill="white">
      GDPR
    </text>
    <text x="50" y="65" text-anchor="middle" font-family="Arial, sans-serif" font-size="10" fill="white">
      🔒
    </text>
  </g>
  

  <g transform="translate(150, 80)">
    <rect x="0" y="0" width="600" height="120" rx="10" fill="white" stroke="#ddd" stroke-width="1"/>
    <rect x="0" y="0" width="600" height="40" rx="10" fill="url(#gdprGradient)"/>
    <text x="300" y="25" text-anchor="middle" font-family="Arial, sans-serif" font-size="16" font-weight="bold" fill="white">
      📋 GDPR Grunnprinsipper for Kassasystemer
    </text>
    
    <g transform="translate(20, 50)">

      <text x="0" y="20" font-family="Arial, sans-serif" font-size="12" font-weight="bold" fill="#333">
        Databehandling:
      </text>
      <text x="0" y="35" font-family="Arial, sans-serif" font-size="11" fill="#666">
        • Lovlig grunnlag for behandling
      </text>
      <text x="0" y="50" font-family="Arial, sans-serif" font-size="11" fill="#666">
        • Formålsbegrensning
      </text>
      <text x="0" y="65" font-family="Arial, sans-serif" font-size="11" fill="#666">
        • Dataminimering
      </text>
      

      <text x="200" y="20" font-family="Arial, sans-serif" font-size="12" font-weight="bold" fill="#333">
        Sikkerhet:
      </text>
      <text x="200" y="35" font-family="Arial, sans-serif" font-size="11" fill="#666">
        • Kryptering av data
      </text>
      <text x="200" y="50" font-family="Arial, sans-serif" font-size="11" fill="#666">
        • Tilgangskontroll
      </text>
      <text x="200" y="65" font-family="Arial, sans-serif" font-size="11" fill="#666">
        • Regelmessig backup
      </text>
      

      <text x="400" y="20" font-family="Arial, sans-serif" font-size="12" font-weight="bold" fill="#333">
        Rettigheter:
      </text>
      <text x="400" y="35" font-family="Arial, sans-serif" font-size="11" fill="#666">
        • Rett til sletting
      </text>
      <text x="400" y="50" font-family="Arial, sans-serif" font-size="11" fill="#666">
        • Dataportabilitet
      </text>
      <text x="400" y="65" font-family="Arial, sans-serif" font-size="11" fill="#666">
        • Informasjonsplikt
      </text>
    </g>
  </g>
  

  <g transform="translate(50, 220)">
    <rect x="0" y="0" width="340" height="160" rx="10" fill="white" stroke="#ddd" stroke-width="1"/>
    <rect x="0" y="0" width="340" height="40" rx="10" fill="url(#securityGradient)"/>
    <text x="170" y="25" text-anchor="middle" font-family="Arial, sans-serif" font-size="14" font-weight="bold" fill="white">
      📄 Databehandlingsavtaler
    </text>
    
    <g transform="translate(15, 50)">
      <text x="0" y="20" font-family="Arial, sans-serif" font-size="12" font-weight="bold" fill="#333">
        Avtaler med leverandører:
      </text>
      <text x="0" y="40" font-family="Arial, sans-serif" font-size="11" fill="#666">
        • Kassasystemleverandør
      </text>
      <text x="0" y="55" font-family="Arial, sans-serif" font-size="11" fill="#666">
        • Cloud-tjenesteleverandør
      </text>
      <text x="0" y="70" font-family="Arial, sans-serif" font-size="11" fill="#666">
        • Betalingsformidler
      </text>
      <text x="0" y="85" font-family="Arial, sans-serif" font-size="11" fill="#666">
        • Support og vedlikehold
      </text>
      <text x="0" y="100" font-family="Arial, sans-serif" font-size="11" fill="#666">
        • Backup-tjenester
      </text>
    </g>
  </g>
  

  <g transform="translate(410, 220)">
    <rect x="0" y="0" width="340" height="160" rx="10" fill="white" stroke="#ddd" stroke-width="1"/>
    <rect x="0" y="0" width="340" height="40" rx="10" fill="url(#complianceGradient)"/>
    <text x="170" y="25" text-anchor="middle" font-family="Arial, sans-serif" font-size="14" font-weight="bold" fill="white">
      👤 Kunderettigheter
    </text>
    
    <g transform="translate(15, 50)">
      <text x="0" y="20" font-family="Arial, sans-serif" font-size="12" font-weight="bold" fill="#333">
        Registrerte personers rettigheter:
      </text>
      <text x="0" y="40" font-family="Arial, sans-serif" font-size="11" fill="#666">
        • Rett til informasjon om behandling
      </text>
      <text x="0" y="55" font-family="Arial, sans-serif" font-size="11" fill="#666">
        • Rett til innsyn i egne data
      </text>
      <text x="0" y="70" font-family="Arial, sans-serif" font-size="11" fill="#666">
        • Rett til retting av feil
      </text>
      <text x="0" y="85" font-family="Arial, sans-serif" font-size="11" fill="#666">
        • Rett til sletting (når mulig)
      </text>
      <text x="0" y="100" font-family="Arial, sans-serif" font-size="11" fill="#666">
        • Rett til dataportabilitet
      </text>
    </g>
  </g>
  

  <g transform="translate(50, 400)">
    <rect x="0" y="0" width="700" height="140" rx="10" fill="white" stroke="#ddd" stroke-width="1"/>
    <rect x="0" y="0" width="700" height="40" rx="10" fill="url(#securityGradient)"/>
    <text x="350" y="25" text-anchor="middle" font-family="Arial, sans-serif" font-size="16" font-weight="bold" fill="white">
      🔐 Sikkerhetstiltak og Implementering
    </text>
    
    <g transform="translate(30, 50)">

      <text x="0" y="20" font-family="Arial, sans-serif" font-size="12" font-weight="bold" fill="#333">
        Tekniske tiltak:
      </text>
      <text x="0" y="40" font-family="Arial, sans-serif" font-size="11" fill="#666">
        • End-to-end kryptering av data
      </text>
      <text x="0" y="55" font-family="Arial, sans-serif" font-size="11" fill="#666">
        • To-faktor autentisering
      </text>
      <text x="0" y="70" font-family="Arial, sans-serif" font-size="11" fill="#666">
        • Automatisk logging av tilgang
      </text>
      

      <text x="250" y="20" font-family="Arial, sans-serif" font-size="12" font-weight="bold" fill="#333">
        Organisatoriske tiltak:
      </text>
      <text x="250" y="40" font-family="Arial, sans-serif" font-size="11" fill="#666">
        • Personvernpolicy for kunder
      </text>
      <text x="250" y="55" font-family="Arial, sans-serif" font-size="11" fill="#666">
        • Opplæring av ansatte
      </text>
      <text x="250" y="70" font-family="Arial, sans-serif" font-size="11" fill="#666">
        • Rutiner for datainnbrudd
      </text>
      

      <text x="500" y="20" font-family="Arial, sans-serif" font-size="12" font-weight="bold" fill="#333">
        Overvåkning:
      </text>
      <text x="500" y="40" font-family="Arial, sans-serif" font-size="11" fill="#666">
        • Regelmessige risikovurderinger
      </text>
      <text x="500" y="55" font-family="Arial, sans-serif" font-size="11" fill="#666">
        • Konsekvensutredninger (DPIA)
      </text>
      <text x="500" y="70" font-family="Arial, sans-serif" font-size="11" fill="#666">
        • Internrevisjon av prosedyrer
      </text>
    </g>
  </g>
  

  <g transform="translate(50, 560)">
    <rect x="0" y="0" width="700" height="30" rx="5" fill="url(#warningGradient)"/>
    <text x="20" y="20" font-family="Arial, sans-serif" font-size="12" font-weight="bold" fill="white">
      ⚠️ VIKTIG: Brudd på GDPR kan medføre bøter på opptil 4% av årlig omsetning eller 20 millioner euro
    </text>
  </g>
  

  <g transform="translate(600, 250)">

    <circle cx="50" cy="30" r="15" fill="url(#gdprGradient)"/>
    <text x="50" y="35" text-anchor="middle" font-family="Arial, sans-serif" font-size="10" fill="white">👤</text>
    <text x="50" y="55" text-anchor="middle" font-family="Arial, sans-serif" font-size="10" fill="#333">Kunde</text>
    

    <path d="M50 70 L50 90 M45 85 L50 90 L55 85" stroke="#666" stroke-width="2" fill="none"/>
    <text x="60" y="85" font-family="Arial, sans-serif" font-size="9" fill="#666">Persondata</text>
    

    <rect x="25" y="100" width="50" height="30" rx="5" fill="url(#securityGradient)"/>
    <text x="50" y="118" text-anchor="middle" font-family="Arial, sans-serif" font-size="9" fill="white">Kassa</text>
    

    <path d="M80 115 L100 115 M95 110 L100 115 L95 120" stroke="#666" stroke-width="2" fill="none"/>
    <text x="85" y="110" font-family="Arial, sans-serif" font-size="9" fill="#666">Sikker</text>
    <text x="85" y="125" font-family="Arial, sans-serif" font-size="9" fill="#666">lagring</text>
    

    <circle cx="115" cy="115" r="15" fill="url(#complianceGradient)"/>
    <text x="115" y="120" text-anchor="middle" font-family="Arial, sans-serif" font-size="10" fill="white">💾</text>
  </g>
</svg>
